X: 1059
T: A Theater Tune.
%R: air, waltz, jig
B: Henry Playford "Apollo's Banquet", London 1687 (5th Edition)
F: https://archive.org/details/apollosbanquetco01rugg
Z: 2017 John Chambers <jc:trillian.mit.edu>
M: 6/4
L: 1/8
K: D
% - - - - - - - - - -
d2 |\
B2A2B2 c4e2 | f2(gf)(ed) e4d2 |  B2A2B2 d2e3f | f4e2 e4d2 |\
B2A2B2 d4e2 | f2(gf)(ed) e4f2 | g2a2b2 B2g4 | e4d2 d4 :|
|: a2 |\
f2e2d2 g4a2 | b2a2b2 a4g2 | f2(gf)(ed) e2a4 | c4B2 B4(B/c/)d |\
A2F2G2 A4(GF) | B2E2D2 ^C4E2 |F2G2A2 B2A2(GF) | E3 D2 |]
% - - - - - - - - - -

%%sep 1 1 500
%%sep 1 1 500

